X: 06068
T: NI\~NA'S REEL
C: Bob McQuillen 8 Mar 82
B: Bob's Note Book 6 #68
%R: reel
Z: 2021 John Chambers <jc:trillian.mit.edu>
M: C
L: 1/8
K: G
GE \
| D2GB  AGEG | DEGB d2BA | GBde g2ba | gedB AGED |\
| B,DGB AGEG | DEGB ABde | g2gd BedB | AGAB G2 :|
|: ga \
| bged egdB | edge dBgf | e2ge deBA | G2EG EDGA |\
| BGBd edge | dedB egba | gdeg edBG | AGED G2 :|
%%begintext align
%% For Ni\~na Iselin
%% of Nelson, N.H. - with love to you, Ni\~na, and
%% the hope that you like this tune - Maybe,
%% you can find _somebody_ to fiddle it for you!
%%endtext

%%sep 1 1 500

%%sep 1 1 500

